src/no-artifacts.svg

<svg id="Layer_1" data-name="Layer 1" xmlns="http://www.w3.org/2000/svg" width="16" height="16" viewBox="0 0 16 16">
  <title>No artifacts</title>
  <path d="M7.79138,8.06437,4.68652,4.95726l-2.738-1.05951,1.19617-.48535L2.051,2.3198l-2.0509.8255L0,3.14524V5.07548L7.675,8.04264A.89447.89447,0,0,0,7.79138,8.06437ZM7.999,12.00944a.90331.90331,0,0,0,.324-.06055l2.41663-.93414L9.34839,9.62254,7.999,10.14421,0,7.05155V8.98173l7.675,2.96716A.90339.90339,0,0,0,7.999,12.00944Zm5.95575-2.23761,2.0426-.78955V7.0521L12.56287,8.37992,11.13751,6.95457,15.99738,5.076V3.14476L8.241.02311a.6483.6483,0,0,0-.48407,0l-2.5318,1.0191L4.17773-.00521h-2.349L16,14.17912V11.81706ZM6.30371,2.12077l1.69336-.69067,6.075,2.4588L9.74561,5.56266ZM7.999,14.1237,0,11.031v1.93018l7.675,2.96716a.8972.8972,0,0,0,.648,0l5.2851-2.043-1.39124-1.39227Z"/>
</svg>

<svg xmlns="http://www.w3.org/2000/svg" viewBox="0 0 16 16"><path d="M7.791 8.064L4.687 4.957l-2.738-1.06 1.196-.485L2.05 2.32l-2.05.825H0v1.93l7.675 2.968a.894.894 0 0 0 .116.021zM8 12.01a.903.903 0 0 0 .324-.06l2.417-.934-1.392-1.392L8 10.144 0 7.052v1.93l7.675 2.967a.903.903 0 0 0 .324.06zm5.956-2.237l2.042-.79v-1.93L12.563 8.38l-1.425-1.425 4.86-1.879V3.145L8.24.023a.648.648 0 0 0-.484 0l-2.532 1.02L4.178-.006h-2.35L16 14.179v-2.362zM6.304 2.12l1.693-.69 6.075 2.458-4.326 1.674zm1.695 12.003L0 11.03v1.93l7.675 2.967a.897.897 0 0 0 .648 0l5.285-2.043-1.391-1.392z"/></svg>
